!!!OTL: WAS SINGT DAS VOEGLEIN KLEINE
!!!ARE: Europa, Mitteleuropa, Deutschland
!!!SCT: F0446
!!!YEM: Copyright 1995, estate of Helmut Schaffrath.
**kern
*ICvox
*Ivox
*M2/4
*k[f#c#]
*D:
{8A
=1
8A
8F#
8d
8A
=2
4f#
8d}
{8B
=3
8A
8F#
8E
8G
=4
4.F#}
{8F#
=5
8F#
8c#
8d
8c#
=6
4c#
8B
8r}
=7
{4c#
8B
8A
=8
[2f#
=9
[2f#]
=10
4f#]
4r}
=11
{4A
8F#
8d
=12
[2A
=13
4A]
4r
=14
4.r}
==
!!!AGN: Heimat -, Wander - Lied
!!!ONB: ESAC (Essen Associative Code) Database: FINK
!!!AMT: simple duple
!!!AIN: vox
!!!EED: Helmut Schaffrath
!!!EEV: 1.0
*-
